X: 10812
Q: "Slow with expression."
M: 6/8
L: 1/16
K: Edor
|: e2 |\
g4a2 b4c'2 | b2a2g2 f2e2d2 | (g3fg2) (a3^ga2) | b3^ab2 B4ga |\
b2(c'b)(ag)  a2(ba)(gf) | edcBg2 {g}f4e2 | d2B2AG {G}B4AF | G3AF2 E4 :|
|: e2 |\
eB3 ze eB3 (ef) | g2E2bg {g}f4e2 | {e}d2B2(de/f/) g4f2 | e3^de2 E4EF |\
|: e>f |\
g4g2 a4a2 | b4b2 {b}a2g2f2 | e^defga (ba)(gf)(e^d) | e2E2E2 E4GA |\
(Bb).a.g.f.e (dg).f.e.d.c | (BA).G.A.B.g {g}f4 Hb2 | e2(B2AG) {G}B4 AF | G3AF2 E4 :|


